assets/images/vector/icons/cryptography_icon.svg

<svg fill="none" height="59" viewBox="0 0 59 59" width="59" xmlns="http://www.w3.org/2000/svg"><g stroke="#111" stroke-linecap="round" stroke-linejoin="round" stroke-width="10"><path d="m23.334 25c2.7614 0 5-2.2386 5-5s-2.2386-5-5-5-5 2.2386-5 5 2.2386 5 5 5z"/><path d="m53.334 20.8333v17.9366c0 .8834-.35 1.7334-.9767 2.3567l-11.23 11.23c-.6266.6267-1.4733.9767-2.3567.9767h-20.4366"/><path d="m21.666 33.3333v7.7866c0 .8834.35 1.7334.9767 2.3567l2.3566 2.3567"/><path d="m10 46.6666 2.64-3.4167c.45-.5833.6933-1.3.6933-2.0366v-10.59c0-.93.3867-1.8167 1.07-2.4467l5.22-4.8333"/><path d="m35 43.3333c2.7614 0 5-2.2386 5-5 0-2.7615-2.2386-5-5-5s-5 2.2385-5 5c0 2.7614 2.2386 5 5 5z"/><path d="m36.6673 25v-7.7867c0-.8833-.35-1.7333-.9766-2.3566l-2.3567-2.3567"/><path d="m48.3343 11.6667-2.64 3.4167c-.45.5833-.6934 1.3-.6934 2.0367v10.59c0 .93-.3866 1.8166-1.07 2.4466l-5.22 4.8334"/><path d="m40 5h-20.4367c-.8833 0-1.7333.35-2.3566.97667l-11.23003 11.23003c-.62667.6266-.97667 1.4733-.97667 2.3566v17.9367"/></g></svg>

<svg width="59" height="59" viewBox="0 0 59 59" fill="none" xmlns="http://www.w3.org/2000/svg">
<path d="M23.334 25C26.0954 25 28.334 22.7614 28.334 20C28.334 17.2386 26.0954 15 23.334 15C20.5726 15 18.334 17.2386 18.334 20C18.334 22.7614 20.5726 25 23.334 25Z" stroke="#111111" stroke-width="10" stroke-linecap="round" stroke-linejoin="round"/>
<path d="M53.334 20.8333V38.7699C53.334 39.6533 52.984 40.5033 52.3573 41.1266L41.1273 52.3566C40.5007 52.9833 39.654 53.3333 38.7706 53.3333H18.334" stroke="#111111" stroke-width="10" stroke-linecap="round" stroke-linejoin="round"/>
<path d="M21.666 33.3333V41.1199C21.666 42.0033 22.016 42.8533 22.6427 43.4766L24.9993 45.8333" stroke="#111111" stroke-width="10" stroke-linecap="round" stroke-linejoin="round"/>
<path d="M10 46.6666L12.64 43.2499C13.09 42.6666 13.3333 41.9499 13.3333 41.2133V30.6233C13.3333 29.6933 13.72 28.8066 14.4033 28.1766L19.6233 23.3433" stroke="#111111" stroke-width="10" stroke-linecap="round" stroke-linejoin="round"/>
<path d="M35 43.3333C37.7614 43.3333 40 41.0947 40 38.3333C40 35.5718 37.7614 33.3333 35 33.3333C32.2386 33.3333 30 35.5718 30 38.3333C30 41.0947 32.2386 43.3333 35 43.3333Z" stroke="#111111" stroke-width="10" stroke-linecap="round" stroke-linejoin="round"/>
<path d="M36.6673 25V17.2133C36.6673 16.33 36.3173 15.48 35.6907 14.8567L33.334 12.5" stroke="#111111" stroke-width="10" stroke-linecap="round" stroke-linejoin="round"/>
<path d="M48.3343 11.6667L45.6943 15.0834C45.2443 15.6667 45.0009 16.3834 45.0009 17.1201V27.7101C45.0009 28.6401 44.6143 29.5267 43.9309 30.1567L38.7109 34.9901" stroke="#111111" stroke-width="10" stroke-linecap="round" stroke-linejoin="round"/>
<path d="M40 5H19.5633C18.68 5 17.83 5.35 17.2067 5.97667L5.97667 17.2067C5.35 17.8333 5 18.68 5 19.5633V37.5" stroke="#111111" stroke-width="10" stroke-linecap="round" stroke-linejoin="round"/>
</svg>
